X:1
T:Cromer, LM
T:Cromer, LM
T:John Ambrose Lloyd (1815–1874)
T:Public Domain Courtesy of the Cyber Hymnal™
C:John Ambrose Lloyd (1815–1874)
Z:Public Domain
Z:Courtesy of the Cyber Hymnal™
%%score ( 1 2 ) ( 3 4 )
L:1/8
Q:1/4=107
M:4/4
K:G
V:1 treble 
V:2 treble 
V:3 bass 
V:4 bass 
V:1
 [B,D]2 | [DG]2 [DB]2 [CE]2 ([Ec][CA]) | G2 z [B,G]2 !breath![DA]2 x | [DB]2 [Dd]2 [B,G]2 (cB) | %4
 A2 z !fermata![DF]2 [A,F]2 x | [B,G]2 [DA]2 [DB]2 [G,B]2 | c2 z [Ee]2 !breath![Ge]2 x | %7
 [Gd]2 [Fc]2 [GB]2 ([Ec][CA]) | G2 z [B,G]2 x |] %9
V:2
 x2 | x8 | (B,D) F2 C x3 | x6 E2 | (A,D) G2 ^C x3 | x8 | (G,G) d2 =F x3 | x8 | (B,D) F2 C x |] %9
V:3
 [G,,G,]2 | [B,,G,]2 [G,,G,]2 [C,G,]2 [A,,A,]2 | (D,B,) [D,A,]2 [G,,G,]2 [D,F,]2 | %3
 G,2 [B,,G,]2 [E,G,]2 (A,G,) | [D,F,]2 [E,G,]2 !fermata![D,A,]2 D,2 | (D,D) z C B,2 z D | %6
 [E,G,]2 [D,B,]2 [C,C]2 [C,C]2 | [D,B,]2 [D,A,]2 [E,G,]2 (G,E,) | (D,B,) [D,A,]2 [G,,G,]2 |] %9
V:4
 x2 | x8 | D,2 x6 | G,2 x2 A,,2 x2 | x6 (D,C,) | B,,2 A,,2 G,, G,2 =F, | x8 | x6 C,2 | D,2 x4 |] %9

